images_sukapura_svg/cmd/32/spacepara15.svg

<svg viewBox="0 0 32 32" xmlns="http://www.w3.org/2000/svg" xmlns:xlink="http://www.w3.org/1999/xlink"><linearGradient id="a" gradientTransform="translate(-25.830508 -3.59322)" gradientUnits="userSpaceOnUse" x1="14" x2="13.79661" y1="22" y2="2.135593"><stop offset="0" stop-color="#0040dd"/><stop offset="1" stop-color="#0a84ff"/></linearGradient><linearGradient id="b" gradientUnits="userSpaceOnUse" x1="3.009907" x2="15.009659" xlink:href="#a" y1="17.000021" y2="17.000021"/><linearGradient id="c" gradientUnits="userSpaceOnUse" x1="3.009907" x2="15.009659" y1="17.000021" y2="17.000021"><stop offset="0" stop-color="#0070f5"/><stop offset="1" stop-color="#0070f5" stop-opacity="0"/></linearGradient><linearGradient id="d" gradientTransform="matrix(1 0 0 -1 -7.9899 15.000042)" gradientUnits="userSpaceOnUse" x1="17.008224" x2="16.831358" xlink:href="#a" y1="-16.365831" y2="14.603049"/><linearGradient id="e" gradientUnits="userSpaceOnUse" x1="3.687873" x2="3.145252" xlink:href="#a" y1="31.847479" y2=".254258"/><g fill="url(#b)" stroke="url(#c)" stroke-linecap="round" stroke-linejoin="round" stroke-width="2"><path d="m8.5 20c-.2770006 0-.5.222999-.5.5v4.5h-3.9902344l5 5 5.0000004-5h-.009766-4v-4.5c0-.277001-.2229994-.5-.5-.5z" fill="url(#d)" stroke="url(#d)"/><path d="m9.0097656 4-5 5h3.9902344v4.5c0 .277001.2229994.5.5.5h1c.2770006 0 .5-.222999.5-.5v-4.5h4 .009766z" fill="url(#e)" stroke="url(#e)"/></g><path d="m28.5202 7.0000012c.277 0 .5.223.5.5 0 .2770001-.223.5-.5.5h-11c-.277 0-.5-.2229999-.5-.5 0-.277.223-.5.5-.5zm0 3.9999998c.277 0 .5.223.5.5s-.223.5-.5.5h-11c-.277 0-.5-.223-.5-.5s.223-.5.5-.5zm0 8.999999c.277 0 .5.223.5.5s-.223.5-.5.5h-11c-.277 0-.5-.223-.5-.5s.223-.5.5-.5zm0 4c.277 0 .5.223.5.5s-.223.5-.5.5h-11c-.277 0-.5-.223-.5-.5s.223-.5.5-.5z" fill="#69696e"/><path d="m28.5202 8.0000012c.277 0 .5.223.5.5 0 .2770001-.223.4999996-.5.4999996h-11c-.277 0-.5-.2229995-.5-.4999996 0-.277.223-.5.5-.5zm0 3.9999998c.277 0 .5.223.5.5s-.223.499999-.5.499999h-11c-.277 0-.5-.222999-.5-.499999s.223-.5.5-.5zm0 8.999999c.277 0 .5.223.5.5s-.223.5-.5.5h-11c-.277 0-.5-.223-.5-.5s.223-.5.5-.5zm0 4c.277 0 .5.223.5.5s-.223.5-.5.5h-11c-.277 0-.5-.223-.5-.5s.223-.5.5-.5z" fill="#eaeaea" fill-opacity=".992157"/></svg>

<?xml version="1.0" encoding="UTF-8" standalone="no"?>
<svg
   xmlns:dc="http://purl.org/dc/elements/1.1/"
   xmlns:cc="http://creativecommons.org/ns#"
   xmlns:rdf="http://www.w3.org/1999/02/22-rdf-syntax-ns#"
   xmlns:svg="http://www.w3.org/2000/svg"
   xmlns="http://www.w3.org/2000/svg"
   xmlns:xlink="http://www.w3.org/1999/xlink"
   xmlns:sodipodi="http://sodipodi.sourceforge.net/DTD/sodipodi-0.dtd"
   xmlns:inkscape="http://www.inkscape.org/namespaces/inkscape"
   viewBox="0 0 32 32"
   version="1.1"
   id="svg16"
   sodipodi:docname="spacepara15.svg"
   inkscape:version="0.92.3 (2405546, 2018-03-11)">
  <metadata
     id="metadata22">
    <rdf:RDF>
      <cc:Work
         rdf:about="">
        <dc:format>image/svg+xml</dc:format>
        <dc:type
           rdf:resource="http://purl.org/dc/dcmitype/StillImage" />
      </cc:Work>
    </rdf:RDF>
  </metadata>
  <defs
     id="defs20">
    <linearGradient
       inkscape:collect="always"
       id="linearGradient853">
      <stop
         style="stop-color:#0070f5;stop-opacity:1;"
         offset="0"
         id="stop849" />
      <stop
         style="stop-color:#0070f5;stop-opacity:0;"
         offset="1"
         id="stop851" />
    </linearGradient>
    <linearGradient
       gradientTransform="translate(-25.830508,-3.5932203)"
       id="a"
       gradientUnits="userSpaceOnUse"
       x1="14"
       x2="13.79661"
       y1="22"
       y2="2.1355929">
      <stop
         offset="0"
         stop-color="#0040dd"
         id="stop2" />
      <stop
         offset="1"
         stop-color="#0a84ff"
         id="stop4" />
    </linearGradient>
    <linearGradient
       inkscape:collect="always"
       xlink:href="#a"
       id="linearGradient847"
       x1="3.009907"
       y1="17.000021"
       x2="15.009659"
       y2="17.000021"
       gradientUnits="userSpaceOnUse" />
    <linearGradient
       inkscape:collect="always"
       xlink:href="#linearGradient853"
       id="linearGradient855"
       x1="3.009907"
       y1="17.000021"
       x2="15.009659"
       y2="17.000021"
       gradientUnits="userSpaceOnUse" />
    <linearGradient
       inkscape:collect="always"
       xlink:href="#a"
       id="linearGradient857"
       gradientUnits="userSpaceOnUse"
       x1="17.008224"
       y1="-16.365831"
       x2="16.831358"
       y2="14.603049"
       gradientTransform="matrix(1,0,0,-1,-7.9899,15.000042)" />
    <linearGradient
       inkscape:collect="always"
       xlink:href="#a"
       id="linearGradient859"
       gradientUnits="userSpaceOnUse"
       x1="17.008224"
       y1="-16.365831"
       x2="16.831358"
       y2="14.603049"
       gradientTransform="matrix(1,0,0,-1,-7.9899,15.000042)" />
    <linearGradient
       inkscape:collect="always"
       xlink:href="#a"
       id="linearGradient862"
       gradientUnits="userSpaceOnUse"
       x1="3.6878731"
       y1="31.847479"
       x2="3.145252"
       y2="0.25425828" />
    <linearGradient
       inkscape:collect="always"
       xlink:href="#a"
       id="linearGradient864"
       gradientUnits="userSpaceOnUse"
       x1="3.6878731"
       y1="31.847479"
       x2="3.145252"
       y2="0.25425828" />
  </defs>
  <sodipodi:namedview
     pagecolor="#ffffff"
     bordercolor="#666666"
     borderopacity="1"
     objecttolerance="10"
     gridtolerance="10"
     guidetolerance="10"
     inkscape:pageopacity="0"
     inkscape:pageshadow="2"
     inkscape:window-width="1366"
     inkscape:window-height="685"
     id="namedview18"
     showgrid="false"
     inkscape:zoom="5.2149125"
     inkscape:cx="11.461144"
     inkscape:cy="25.335476"
     inkscape:window-x="0"
     inkscape:window-y="0"
     inkscape:window-maximized="1"
     inkscape:current-layer="svg16" />
  <g
     fill="#0a84ff"
     stroke="#0070f5"
     stroke-linecap="round"
     stroke-linejoin="round"
     stroke-width="2"
     id="g10"
     style="fill-opacity:1;fill:url(#linearGradient847);stroke:url(#linearGradient855)">
    <path
       style="fill-opacity:1;fill:url(#linearGradient857);stroke:url(#linearGradient859)"
       d="M 8.5 20 C 8.2229994 20 8 20.222999 8 20.5 L 8 25 L 4.0097656 25 L 9.0097656 30 L 14.009766 25 L 14 25 L 10 25 L 10 20.5 C 10 20.222999 9.7770006 20 9.5 20 L 8.5 20 z "
       id="rect2" />
    <path
       style="fill-opacity:1;fill:url(#linearGradient862);stroke:url(#linearGradient864)"
       d="M 9.0097656 4 L 4.0097656 9 L 8 9 L 8 13.5 C 8 13.777001 8.2229994 14 8.5 14 L 9.5 14 C 9.7770006 14 10 13.777001 10 13.5 L 10 9 L 14 9 L 14.009766 9 L 9.0097656 4 z "
       id="rect6" />
  </g>
  <path
     d="m28.5202 7.0000012c.277 0 .5.223.5.5 0 .2770001-.223.5-.5.5h-11c-.277 0-.5-.2229999-.5-.5 0-.277.223-.5.5-.5zm0 3.9999998c.277 0 .5.223.5.5s-.223.5-.5.5h-11c-.277 0-.5-.223-.5-.5s.223-.5.5-.5zm0 8.999999c.277 0 .5.223.5.5s-.223.5-.5.5h-11c-.277 0-.5-.223-.5-.5s.223-.5.5-.5zm0 4c.277 0 .5.223.5.5s-.223.5-.5.5h-11c-.277 0-.5-.223-.5-.5s.223-.5.5-.5z"
     fill="#69696e"
     id="path12" />
  <path
     d="m28.5202 8.0000012c.277 0 .5.223.5.5 0 .2770001-.223.4999996-.5.4999996h-11c-.277 0-.5-.2229995-.5-.4999996 0-.277.223-.5.5-.5zm0 3.9999998c.277 0 .5.223.5.5s-.223.499999-.5.499999h-11c-.277 0-.5-.222999-.5-.499999s.223-.5.5-.5zm0 8.999999c.277 0 .5.223.5.5s-.223.5-.5.5h-11c-.277 0-.5-.223-.5-.5s.223-.5.5-.5zm0 4c.277 0 .5.223.5.5s-.223.5-.5.5h-11c-.277 0-.5-.223-.5-.5s.223-.5.5-.5z"
     fill="#eaeaea"
     fill-opacity=".992157"
     id="path14" />
</svg>
